assets/images/payments/unionpay-dark.svg

<svg width="101" height="60" viewBox="0 0 101 60" version="1.1" xmlns="http://www.w3.org/2000/svg" xmlns:xlink="http://www.w3.org/1999/xlink"><title>UnionPay-dark</title><desc>Created with Sketch.</desc><g id="Dark-Payment-badges" stroke="none" stroke-width="1" fill="none" fill-rule="evenodd" transform="translate(-450.000000, -264.000000)"><g id="UnionPay-dark" transform="translate(450.000000, 264.000000)"><rect id="Rectangle" fill="#FFF" x="0" y="0" width="100" height="60" rx="4"/><path d="M68.5800041,3.19744231e-14 C65.4155634,0.100541865 61.5459647,2.64942538 60.8412009,5.79241049 L50.1458155,54.1988144 C49.4410514,57.3711479 51.3583646,59.9524991 54.442774,60 L96.0251702,60 C98.2374479,60 100.029862,58.200205 100.028647,55.9950917 L100,4 L100,3.99710083 C100,1.789563 98.2105899,0 96.0028992,0 L96,0" id="path22" fill="#01798A"/><path d="M0,4.0065556 C0,1.79379604 1.79182266,0 3.99344981,0 L45,0 L45,60 L3.99344981,60 C1.78792838,60 0,58.2043192 0,55.9934444 L0,4.0065556 Z" id="Rectangle-19" fill="#DD0228"/><path d="M61.0971368,5.79779625 C61.8019009,2.65512309 65.6714946,0.106492824 68.7784359,0.00914327835 L59.7862925,0.00318201218 L38.5852765,0 C35.4696704,0.0651667193 31.5496486,2.63168079 30.8451549,5.79779625 L20.1466182,54.1993908 C19.4392528,57.371409 21.359364,59.9525038 24.441829,60 L54.6987049,60 C51.6142955,59.9525038 49.6969823,57.371409 50.4017464,54.1993908 L61.0971368,5.79779625 Z" id="path20" fill="#024381"/><path d="M43.9869757,35.1751967 L44.3797623,35.1751967 C44.7406929,35.1751967 44.9835138,35.0521569 45.0973455,34.8085257 L46.1179711,33.2565793 L48.8511627,33.2565793 L48.2812165,34.2773296 L51.5583271,34.2773296 L51.1426195,35.8413152 L47.2431047,35.8413152 C46.7939856,36.5278017 46.2411314,36.8505395 45.5763854,36.8122898 L43.5452356,36.8122898 L43.9869751,35.1751967 L43.9869757,35.1751967 Z M43.5382426,37.4167497 L50.7179717,37.4167497 L50.2603016,39.1156576 L47.3728713,39.1156576 L46.9322982,40.7555141 L49.7420258,40.7555141 L49.2843556,42.4542606 L46.4746281,42.4542606 L45.8219235,44.8774352 C45.6603006,45.282474 45.8728209,45.4646062 46.4559804,45.4232773 L48.7458768,45.4232773 L48.3216185,47.0019066 L43.925203,47.0019066 C43.0918387,47.0019066 42.8059714,46.5175639 43.0673646,45.5466325 L43.9018885,42.4542606 L42.1058694,42.4542606 L42.5621024,40.7555141 L44.3583919,40.7555141 L44.7985808,39.1156576 L43.0817396,39.1156576 L43.5382429,37.4167497 L43.5382426,37.4167497 Z M54.9978381,33.2450119 L54.8847795,34.2395517 C54.8847795,34.2395517 56.239137,33.2064464 57.469172,33.2064464 L62.0143913,33.2064464 L60.2761821,39.5993665 C60.1320405,40.3302224 59.5139189,40.6936579 58.4221919,40.6936579 L53.2705036,40.6936579 L52.0637832,45.1827199 C51.9942377,45.4232722 52.0925329,45.5466275 52.3524459,45.5466275 L53.3660764,45.5466275 L52.9934932,46.9400504 L50.4164846,46.9400504 C49.4273308,46.9400504 49.0158915,46.6378396 49.17907,46.0307728 L52.5890491,33.2450119 L54.9978329,33.2450119 L54.9978375,33.2450119 L54.9978381,33.2450119 Z M58.8468394,35.0521569 L54.7899797,35.0521569 L54.3047266,36.7771576 C54.3047266,36.7771576 54.9803522,36.2815658 56.1093747,36.2638405 C57.2352862,36.2459204 58.5204871,36.2638405 58.5204871,36.2638405 L58.8468394,35.0521569 L58.8468394,35.0521569 Z M57.3770943,39.0538017 C57.6770255,39.0951306 57.8448614,38.9745388 57.8650648,38.6899326 L58.1133255,37.7806187 L54.0502528,37.7806187 L53.7095258,39.0538017 L57.3770943,39.0538017 L57.3770943,39.0538017 Z M54.6365184,41.1192628 L56.9784791,41.1192628 L56.9349659,42.1489323 L57.5585273,42.1489323 C57.8736111,42.1489323 58.0297945,42.0464223 58.0297945,41.8441197 L58.2143384,41.1780013 L60.1607902,41.1780013 L59.9008768,42.1489323 C59.6809769,42.9587741 59.0982067,43.3812609 58.1510104,43.4225899 L56.9034941,43.4225899 L56.8976655,45.1827202 C56.8747444,45.4646015 57.1257226,45.6082863 57.6424475,45.6082863 L58.8149834,45.6082863 L58.4365669,47.0019069 L55.6241216,47.0019069 C54.8358261,47.0399978 54.4492571,46.6583675 54.4574143,45.8488389 L54.6365184,41.1192632 L54.6365184,41.1192628 Z" id="path24" fill="#FFF"/><path d="M26.2572784,24.7278155 C25.9396288,26.3092105 25.2032813,27.5238167 24.0610886,28.3863543 C22.9292713,29.2342892 21.4694315,29.6595398 19.6821531,29.6595398 C18.0001615,29.6595398 16.7670591,29.2253293 15.9801629,28.3539859 C15.434418,27.7348822 15.1629257,26.9486441 15.1629257,25.9980401 C15.1629257,25.6049994 15.2092359,25.1825125 15.3016632,24.7278158 L17.2059628,15.3982873 L20.0820501,15.3982873 L18.2036652,24.6221829 C18.1458541,24.8774994 18.1227767,25.1151319 18.1258071,25.3293145 C18.1227767,25.8017747 18.2382423,26.1889345 18.4721281,26.4909862 C18.8128541,26.9399994 19.3658646,27.1628289 20.1354315,27.1628289 C21.0203882,27.1628289 21.7495886,26.9429602 22.3155369,26.4997895 C22.8816014,26.0597365 23.2511551,25.4349467 23.4171663,24.6221826 L25.3014581,15.3982869 L28.1629748,15.3982869 L26.2572784,24.7278155" id="path28" fill="#FFF"/><path d="M38.3359298,21.0575119 L40.5884143,21.0575119 L38.824019,29.3838549 L36.5759642,29.3838549 L38.3359298,21.0575119 M39.044967,18.0240771 L41.3174984,18.0240771 L40.8930098,20.0451313 L38.6206325,20.0451313 L39.044967,18.0240771" id="path34" fill="#FFF"/><path d="M42.582266,28.7501053 C41.9931241,28.1780523 41.6956778,27.4064605 41.6928037,26.4265667 C41.6928037,26.2592372 41.7028271,26.0686582 41.7246622,25.8601974 C41.7463785,25.6489345 41.7738477,25.4435529 41.812699,25.252974 C42.0798021,23.9005257 42.6487406,22.8267231 43.5250325,22.0344859 C44.3999656,21.2394467 45.4555587,20.8404069 46.6914177,20.8404069 C47.7034972,20.8404069 48.5061627,21.127974 49.093984,21.7029878 C49.6814161,22.2810398 49.9759125,23.0612763 49.9759125,24.0532115 C49.9759125,24.2231043 49.9630884,24.4197237 49.9413341,24.6309477 C49.9153022,24.8451306 49.8838348,25.0505122 49.8473123,25.2529737 C49.5862325,26.5848951 49.0190037,27.6470125 48.1425147,28.4246062 C47.2660307,29.2079217 46.2135442,29.5978424 44.9862312,29.5978424 C43.9698833,29.5978424 43.1699306,29.3163155 42.582266,28.7501049 M46.8747948,27.1012885 C47.2718594,26.6641579 47.5562491,26.0009596 47.7295245,25.1180514 C47.7555565,24.9802089 47.7784776,24.8363678 47.7928526,24.6926444 C47.8072272,24.5517231 47.8130559,24.4197234 47.8130559,24.2994471 C47.8130559,23.7859737 47.6844604,23.3870902 47.426098,23.1053681 C47.1692912,22.8207234 46.8040875,22.6800793 46.3320427,22.6800793 C45.7080925,22.6800793 45.1999137,22.90275 44.8016873,23.3488405 C44.3999656,23.7949336 44.1155759,24.4696579 43.9364671,25.3674073 C43.9119904,25.5052497 43.8917918,25.6432484 43.8731391,25.7781707 C43.8587644,25.9160132 43.8544911,26.0450927 43.8572135,26.1624079 C43.8572135,26.6729615 43.9858089,27.0661585 44.2441714,27.3447632 C44.5009782,27.6235655 44.8646262,27.7614076 45.3428888,27.7614076 C45.9695614,27.7614076 46.4777352,27.54138 46.8747948,27.1012882" id="path36" fill="#FFF"/><path d="M64.590238,35.2456971 L65.1333793,33.3035912 L67.879395,33.3035912 L67.7608965,34.0162882 C67.7608965,34.0162882 69.164207,33.3035912 70.1747313,33.3035912 L73.5703403,33.3035912 L73.0306944,35.2456971 L72.4964884,35.2456971 L69.9350166,44.4052879 L70.4692227,44.4052879 L69.9610485,46.2243155 L69.4268425,46.2243155 L69.204614,47.0134712 L66.5452362,47.0134712 L66.7670805,46.2243155 L61.5205925,46.2243155 L62.0318775,44.4052879 L62.5575375,44.4052879 L65.1213379,35.2456971 L64.5902384,35.2456971 L64.590238,35.2456971 Z M67.5530427,35.2456971 L66.8541072,37.7246438 C66.8541072,37.7246438 68.0499531,37.2583803 69.0806757,37.1263803 C69.3083486,36.2607227 69.6059466,35.2456967 69.6059466,35.2456967 L67.5530424,35.2456967 L67.5530427,35.2456971 Z M66.5304773,38.8866698 L65.8292086,41.4831319 C65.8292086,41.4831319 67.1544275,40.8200924 68.0639389,40.7642744 C68.3265744,39.7607769 68.5895989,38.8866701 68.5895989,38.8866701 L66.5304773,38.8866701 L66.5304773,38.8866698 Z M67.0444801,44.4052879 L67.5701351,42.5218023 L65.5203422,42.5218023 L64.9919601,44.4052879 L67.0444801,44.4052879 L67.0444801,44.4052879 Z M73.6861167,33.1833537 L76.2677872,33.1833537 L76.3773508,34.1512105 C76.3602537,34.3976056 76.5043953,34.5152747 76.8105443,34.5152747 L77.2666588,34.5152747 L76.8051045,36.1551313 L74.9076057,36.1551313 C74.1830271,36.1932221 73.8104392,35.9118155 73.7758655,35.3042763 L73.6861167,33.1833537 L73.6861167,33.1833537 Z M72.9296822,36.7009737 L81.2920467,36.7009737 L80.8013538,38.4613809 L78.1388695,38.4613809 L77.6823661,40.098156 L80.3421327,40.098156 L79.8483289,41.8556842 L76.8859134,41.8556842 L76.2157276,42.8857102 L77.6656628,42.8857102 L78.0005612,44.9480511 C78.0405743,45.1534326 78.2196834,45.253182 78.5258321,45.253182 L78.976118,45.253182 L78.5029063,46.9516153 L76.9088391,46.9516153 C76.0828591,46.9929442 75.655883,46.7112603 75.6209159,46.1040395 L75.2366754,44.2205492 L73.9172851,46.2243158 C73.6053075,46.7904875 73.1258784,47.054646 72.4793962,47.0134715 L70.0449693,47.0134715 L70.5185651,45.3145658 L71.2781109,45.3145658 C71.5900885,45.3145658 71.8496127,45.1737625 72.0834988,44.8892744 L74.1484491,41.8556842 L71.4859647,41.8556842 L71.9793797,40.098156 L74.8671991,40.098156 L75.3264199,38.4613809 L72.435883,38.4613809 L72.9296822,36.7009737 L72.9296822,36.7009737 Z" id="path26" fill="#FFF"/><path d="M28.9065903,21.0545918 L30.9379323,21.0545918 L30.7056018,22.2574333 L30.9971436,21.9142093 C31.6556342,21.1984333 32.4554281,20.8433289 33.3997099,20.8433289 C34.2544396,20.8433289 34.8708943,21.0957638 35.2578923,21.6031974 C35.6389458,22.1108283 35.7429129,22.8120789 35.562642,23.7127506 L34.4435292,29.3867773 L32.3558524,29.3867773 L33.3664522,24.2437904 C33.470576,23.7127509 33.441748,23.3166309 33.2811757,23.061276 C33.1225832,22.8060799 32.8191921,22.6800793 32.3818039,22.6800793 C31.8447237,22.6800793 31.3927663,22.8500132 31.0246102,23.1875536 C30.6549011,23.5278549 30.4110321,24.0003155 30.2911368,24.6016579 L29.3599066,29.3867773 L27.2678785,29.3867773 L28.9065903,21.0545918" id="path30" fill="#FFF"/><path d="M52.2020968,21.0545918 L54.2351864,21.0545918 L54.0044116,22.2574333 L54.2926902,21.9142093 C54.9516075,21.1984333 55.7542777,20.8433289 56.6956453,20.8433289 C57.550375,20.8433289 58.1681125,21.0957638 58.5519591,21.6031974 C58.9307598,22.1108283 59.0403234,22.8120789 58.8553904,23.7127506 L57.7407426,29.3867773 L55.6501539,29.3867773 L56.6610667,24.2437904 C56.7647967,23.7127509 56.736047,23.3166309 56.5771465,23.061276 C56.4124171,22.8060799 56.1148145,22.6800793 55.6792924,22.6800793 C55.1419798,22.6800793 54.6916895,22.8500132 54.3191063,23.1875536 C53.9492408,23.5278549 53.7040909,24.0003155 53.588699,24.6016579 L52.65316,29.3867773 L50.5637331,29.3867773 L52.2020961,21.0545918" id="path32" fill="#FFF"/><path d="M62.2513839,15.8909176 L68.1536827,15.8909176 C69.2885292,15.8909176 70.1661799,16.1522331 70.7695427,16.6653909 C71.370183,17.1848659 71.6708922,17.9301294 71.6708922,18.9011823 L71.6708922,18.9303925 C71.6708922,19.1151303 71.6588507,19.3235488 71.6417536,19.5493421 C71.6126151,19.7723659 71.5749306,19.9981554 71.5263664,20.2330241 C71.266453,21.5180896 70.6627015,22.5508791 69.730269,23.3341948 C68.7943412,24.1145517 67.6859112,24.5077491 66.4096453,24.5077491 L63.2444219,24.5077491 L62.2657586,29.3867751 L59.5251827,29.3867751 L62.2513836,15.8909179 M63.7265681,22.1607613 L66.3517568,22.1607613 C67.0359284,22.1607613 67.5786809,21.9991563 67.9745737,21.6795385 C68.3673649,21.3568007 68.6272782,20.8640109 68.7714152,20.1951313 C68.7943409,20.0715783 68.8087156,19.9602622 68.8261968,19.8576294 C68.835132,19.7609195 68.8464002,19.6638145 68.8464002,19.5702597 C68.8464002,19.0918389 68.6793375,18.7456576 68.34405,18.5285523 C68.0091517,18.308286 67.4838851,18.2028944 66.7558065,18.2028944 L64.5265156,18.2028944 L63.7265675,22.1607613" id="path38" fill="#FFF"/><path d="M83.9370442,30.9976187 C83.0706572,32.8692625 82.245066,33.9604749 81.7602018,34.4680674 C81.2745599,34.969974 80.3133778,36.1376858 77.9974493,36.0495013 L78.1967571,34.6208691 C80.1455421,34.0106049 81.1995796,31.2613029 81.8002199,30.0439358 L81.0841873,21.0780392 L82.5916216,21.0575144 L83.8562303,21.0575144 L83.99221,26.6817628 L86.3625313,21.0575144 L88.7623799,21.0575144 L83.9370439,30.9976187" id="path40" fill="#FFF"/><path d="M77.2266401,21.7351974 L76.2732264,22.4013158 C75.2770771,21.6092378 74.3675657,21.1192112 72.6122641,21.9464602 C70.2209616,23.0729997 68.2228391,31.7133951 74.8065878,28.8674615 L75.1818931,29.3192381 L77.7721096,29.3867776 L79.473023,21.5356585 L77.2266401,21.7351977 M75.7537841,26.0274862 C75.3376877,27.2744608 74.4083615,28.0987898 73.6806766,27.8641184 C72.9529914,27.6352895 72.6930737,26.4322506 73.1146096,25.1825122 C73.5303219,23.9326197 74.4658609,23.1112112 75.1877171,23.3459211 C75.915407,23.57475 76.1780424,24.7775915 75.7537841,26.0274862" id="path42" fill="#FFF"/></g></g></svg>

<svg width="101" height="60" xmlns="http://www.w3.org/2000/svg"><g fill="none" fill-rule="evenodd"><rect fill="#FFF" width="100" height="60" rx="4"/><path d="M68.58 0c-3.164.1-7.034 2.65-7.739 5.792L50.146 54.2c-.705 3.172 1.212 5.753 4.297 5.801h41.582c2.212 0 4.005-1.8 4.004-4.005L100 4v-.003A3.997 3.997 0 0096.003 0H96" fill="#01798A"/><path d="M0 4.007A4.003 4.003 0 013.993 0H45v60H3.993A4.001 4.001 0 010 55.993V4.007z" fill="#DD0228"/><path d="M61.097 5.798c.705-3.143 4.574-5.692 7.681-5.789L59.786.003 38.586 0c-3.116.065-7.036 2.632-7.74 5.798l-10.7 48.401c-.707 3.172 1.213 5.754 4.296 5.801h30.257c-3.085-.047-5.002-2.629-4.297-5.8L61.097 5.797z" fill="#024381"/><path d="M43.987 35.175h.393c.36 0 .604-.123.717-.366l1.021-1.552h2.733l-.57 1.02h3.277l-.415 1.564h-3.9c-.449.687-1.002 1.01-1.667.971h-2.03l.441-1.637zm-.449 2.242h7.18l-.458 1.699h-2.887l-.44 1.64h2.809l-.458 1.698h-2.81l-.652 2.423c-.162.405.05.588.634.546h2.29l-.424 1.579h-4.397c-.833 0-1.119-.484-.858-1.455l.835-3.093h-1.796l.456-1.698h1.796l.44-1.64h-1.716l.456-1.7zm11.46-4.172l-.113.995s1.354-1.034 2.584-1.034h4.545L60.276 39.6c-.144.731-.762 1.095-1.854 1.095h-5.151l-1.207 4.489c-.07.24.029.364.288.364h1.014l-.373 1.393h-2.577c-.989 0-1.4-.302-1.237-.91l3.41-12.785h2.409zm3.849 1.807H54.79l-.485 1.725s.675-.495 1.804-.513c1.126-.018 2.411 0 2.411 0l.327-1.212zm-1.47 4.002c.3.041.468-.08.488-.364l.248-.91H54.05l-.34 1.274h3.667zm-2.74 2.065h2.341l-.043 1.03h.624c.315 0 .47-.103.47-.305l.185-.666h1.947l-.26.97c-.22.81-.803 1.233-1.75 1.275h-1.248l-.005 1.76c-.023.282.228.425.744.425h1.173l-.378 1.394h-2.813c-.788.038-1.175-.344-1.167-1.153l.18-4.73zm-28.38-16.391c-.317 1.581-1.054 2.796-2.196 3.658-1.132.848-2.592 1.274-4.379 1.274-1.682 0-2.915-.435-3.702-1.306-.546-.62-.817-1.405-.817-2.356 0-.393.046-.815.139-1.27l1.904-9.33h2.876l-1.878 9.224a3.007 3.007 0 00-.078.707c-.003.473.112.86.346 1.162.34.449.894.672 1.663.672.885 0 1.615-.22 2.18-.663.567-.44.936-1.065 1.102-1.878l1.884-9.224h2.862l-1.906 9.33m12.079-3.67h2.252l-1.764 8.326h-2.248l1.76-8.326m.709-3.034h2.272l-.424 2.021h-2.272l.424-2.02m3.537 10.725c-.589-.572-.886-1.344-.89-2.323 0-.168.01-.358.033-.567.021-.211.049-.416.088-.607.267-1.352.836-2.426 1.712-3.219.875-.795 1.93-1.194 3.166-1.194 1.012 0 1.815.288 2.403.863.587.578.882 1.358.882 2.35 0 .17-.013.367-.035.578-.026.214-.057.42-.094.622-.26 1.332-.828 2.394-1.704 3.172-.877.783-1.93 1.173-3.157 1.173-1.016 0-1.816-.282-2.404-.848m4.293-1.649c.397-.437.681-1.1.855-1.983a5.3 5.3 0 00.063-.425c.014-.141.02-.273.02-.394 0-.513-.129-.912-.387-1.194-.257-.284-.622-.425-1.094-.425-.624 0-1.132.223-1.53.669-.402.446-.686 1.12-.866 2.018-.024.138-.044.276-.063.411a3.035 3.035 0 00-.016.384c0 .511.129.904.387 1.183.257.279.62.416 1.099.416.627 0 1.135-.22 1.532-.66m17.715 8.145l.543-1.942h2.746l-.118.712s1.403-.712 2.414-.712h3.395l-.54 1.942h-.534l-2.561 9.16h.534l-.508 1.818h-.534l-.222.79h-2.66l.222-.79h-5.246l.51-1.819h.527l2.563-9.16h-.53zm2.963 0l-.699 2.479s1.196-.467 2.227-.599c.227-.865.525-1.88.525-1.88h-2.053zm-1.023 3.64l-.7 2.597s1.324-.663 2.234-.719c.263-1.003.526-1.877.526-1.877h-2.06zm.514 5.52l.526-1.884h-2.05l-.528 1.883h2.052zm6.642-11.223h2.582l.11.968c-.018.247.126.364.433.364h.456l-.462 1.64h-1.897c-.725.038-1.098-.243-1.132-.85l-.09-2.122zm-.756 3.518h8.362l-.49 1.76h-2.663l-.457 1.637h2.66l-.494 1.758h-2.962l-.67 1.03h1.45L78 44.948c.04.205.219.305.525.305h.45l-.473 1.699h-1.594c-.826.04-1.253-.24-1.288-.848l-.384-1.883-1.32 2.003c-.312.566-.791.83-1.438.79h-2.434l.474-1.7h.76c.311 0 .57-.14.804-.425l2.065-3.033h-2.662l.493-1.758h2.888l.46-1.637h-2.891l.494-1.76zM28.907 21.055h2.03l-.231 1.202.291-.343c.659-.716 1.458-1.07 2.403-1.07.854 0 1.47.252 1.858.76.38.507.485 1.208.305 2.109l-1.12 5.674h-2.087l1.01-5.143c.105-.531.076-.927-.085-1.183-.158-.255-.462-.38-.9-.38-.536 0-.988.169-1.356.507-.37.34-.614.812-.734 1.414l-.931 4.785h-2.092l1.639-8.332m23.295 0h2.033l-.23 1.202.288-.343c.659-.716 1.461-1.07 2.403-1.07.854 0 1.472.252 1.856.76.379.507.488 1.208.303 2.109l-1.114 5.674h-2.09l1.01-5.143c.104-.531.075-.927-.084-1.183-.165-.255-.462-.38-.898-.38-.537 0-.987.169-1.36.507-.37.34-.615.812-.73 1.414l-.936 4.785h-2.09l1.64-8.332m10.048-5.165h5.903c1.135 0 2.012.262 2.616.775.6.52.9 1.265.9 2.236v.03c0 .184-.011.393-.028.618-.03.223-.067.45-.116.684-.26 1.285-.863 2.318-1.796 3.101-.936.78-2.044 1.174-3.32 1.174h-3.166l-.978 4.879h-2.74L62.25 15.89m1.476 6.27h2.625c.684 0 1.227-.162 1.623-.481.392-.323.652-.816.796-1.485.023-.123.038-.235.055-.337.01-.097.02-.194.02-.288 0-.478-.167-.824-.502-1.041-.335-.22-.86-.326-1.588-.326h-2.23l-.8 3.958m20.212 8.838c-.866 1.871-1.692 2.962-2.177 3.47-.485.502-1.447 1.67-3.763 1.582l.2-1.43c1.949-.61 3.003-3.359 3.603-4.576l-.716-8.966 1.508-.02h1.264l.136 5.624 2.37-5.624h2.4l-4.825 9.94m-6.71-9.263l-.954.666c-.996-.792-1.905-1.282-3.66-.455-2.392 1.127-4.39 9.767 2.194 6.921l.375.452 2.59.068 1.701-7.851-2.246.2m-1.473 4.291c-.416 1.247-1.346 2.072-2.073 1.837-.728-.229-.988-1.432-.566-2.681.415-1.25 1.35-2.072 2.073-1.837.727.229.99 1.432.566 2.681" fill="#FFF"/></g></svg>
